app/dist/common/images/kingsway-financial-services.svg

<svg height="18" viewBox="0 0 18 18" width="18" xmlns="http://www.w3.org/2000/svg"><path d="m0 0h18v18h-18z" fill="#f0f3fa"/><path d="m5 12.7v-8.7h1v1h1v-1h1.5v1h1v-1h1.5v1h1v-1h1v7.45l-3.6-1.97 2.6-1.34v-1.14l-5 2.67v-2.67h-1v5.08l1 .63v-1.91l1.41-.75 4.59 2.53v.11l-4.01 2.31z" fill="#c41230"/></svg>

<!-- by TradingView --><svg width="18" height="18" viewBox="0 0 18 18" xmlns="http://www.w3.org/2000/svg"><path fill="#F0F3FA" d="M0 0h18v18H0z"/><path d="M5 12.7V4h1v1h1V4h1.5v1h1V4H11v1h1V4h1v7.45L9.4 9.48 12 8.14V7L7 9.67V7H6v5.08l1 .63V10.8l1.41-.75L13 12.58v.11L8.99 15 5 12.7Z" fill="#C41230"/></svg>
